front/public/static/landing/logos/gray/lifen.svg

<svg fill="none" height="300" viewBox="0 0 600 300" width="600" xmlns="http://www.w3.org/2000/svg" xmlns:xlink="http://www.w3.org/1999/xlink"><mask id="a" height="89" maskUnits="userSpaceOnUse" width="389" x="105" y="106"><path d="m494 106h-389v89h389z" fill="#fff"/></mask><g fill="#364153" mask="url(#a)"><path d="m439.988 193.433v-61.578h9.183v9.606c2.207-2.956 4.901-5.46 8.085-7.513 3.184-2.052 7.265-3.079 12.246-3.079 4.246 0 8.206 1.027 11.88 3.079 3.754 1.971 6.776 4.968 9.062 8.991 2.367 3.941 3.551 8.826 3.551 14.655v35.839h-9.184v-35.592c0-5.583-1.593-10.058-4.777-13.424-3.184-3.449-7.307-5.173-12.37-5.173-3.429 0-6.53.78-9.307 2.34-2.776 1.56-5.02 3.777-6.734 6.651-1.635 2.791-2.452 6.034-2.452 9.729v35.469z"/><path d="m399.007 194.418c-6.206 0-11.635-1.396-16.289-4.187-4.653-2.874-8.286-6.733-10.898-11.577-2.532-4.844-3.797-10.181-3.797-16.01 0-5.912 1.224-11.249 3.674-16.011 2.449-4.844 5.96-8.662 10.531-11.453 4.574-2.874 9.962-4.311 16.168-4.311 6.285 0 11.674 1.437 16.165 4.311 4.571 2.791 8.082 6.609 10.531 11.453 2.45 4.762 3.674 10.099 3.674 16.011v3.694h-51.313c.49 3.613 1.633 6.938 3.429 9.976 1.877 2.956 4.368 5.337 7.47 7.143 3.103 1.724 6.695 2.586 10.778 2.586 4.327 0 7.959-.944 10.899-2.832 2.939-1.971 5.225-4.475 6.857-7.513h10.044c-2.124 5.501-5.511 10.017-10.165 13.548-4.571 3.448-10.491 5.172-17.758 5.172zm-21.432-36.7h41.639c-.817-5.255-3.021-9.648-6.613-13.178-3.593-3.531-8.327-5.296-14.205-5.296-5.881 0-10.615 1.765-14.208 5.296-3.509 3.53-5.714 7.923-6.613 13.178z"/><path d="m339.626 193.437v-53.45h-10.532v-8.128h10.532v-5.419c0-6.733 2-11.782 6.001-15.148 4.082-3.366 9.635-5.05 16.655-5.05h.735v8.745h-1.225c-4.246 0-7.471.985-9.675 2.955-2.204 1.889-3.306 4.968-3.306 9.237v4.68h14.206v8.128h-14.206v53.45z"/><path d="m309.977 121.514v-12.07h9.921v12.07zm.367 71.923v-61.578h9.185v61.578z"/><path d="m285.23 193.438v-86.209h9.185v86.209z"/><path d="m192.01 127.321v-21.321h-43.527c0 24.126-19.467 43.682-43.483 43.682v43.683c21.79 0 41.705-8.06 56.963-21.361v21.361h43.484c0-24.126 19.467-43.683 43.483-43.683v-43.682c-21.772 0-41.666 8.042-56.92 21.321z"/></g></svg>

<svg width="600" height="300" viewBox="0 0 600 300" fill="none" xmlns="http://www.w3.org/2000/svg">
<mask id="mask0_1904_3513" style="mask-type:luminance" maskUnits="userSpaceOnUse" x="105" y="106" width="389" height="89">
<path d="M494 106H105V195H494V106Z" fill="white"/>
</mask>
<g mask="url(#mask0_1904_3513)">
<path d="M439.988 193.433V131.855H449.171V141.461C451.378 138.505 454.072 136.001 457.256 133.948C460.44 131.896 464.521 130.869 469.502 130.869C473.748 130.869 477.708 131.896 481.382 133.948C485.136 135.919 488.158 138.916 490.444 142.939C492.811 146.88 493.995 151.765 493.995 157.594V193.433H484.811V157.841C484.811 152.258 483.218 147.783 480.034 144.417C476.85 140.968 472.727 139.244 467.664 139.244C464.235 139.244 461.134 140.024 458.357 141.584C455.581 143.144 453.337 145.361 451.623 148.235C449.988 151.026 449.171 154.269 449.171 157.964V193.433H439.988Z" fill="#364153"/>
<path d="M399.007 194.418C392.801 194.418 387.372 193.022 382.718 190.231C378.065 187.357 374.432 183.498 371.82 178.654C369.288 173.81 368.023 168.473 368.023 162.644C368.023 156.732 369.247 151.395 371.697 146.633C374.146 141.789 377.657 137.971 382.228 135.18C386.802 132.306 392.19 130.869 398.396 130.869C404.681 130.869 410.07 132.306 414.561 135.18C419.132 137.971 422.643 141.789 425.092 146.633C427.542 151.395 428.766 156.732 428.766 162.644V166.338H377.453C377.943 169.951 379.086 173.276 380.882 176.314C382.759 179.27 385.25 181.651 388.352 183.457C391.455 185.181 395.047 186.043 399.13 186.043C403.457 186.043 407.089 185.099 410.029 183.211C412.968 181.24 415.254 178.736 416.886 175.698H426.93C424.806 181.199 421.419 185.715 416.765 189.246C412.194 192.694 406.274 194.418 399.007 194.418ZM377.575 157.718H419.214C418.397 152.463 416.193 148.07 412.601 144.54C409.008 141.009 404.274 139.244 398.396 139.244C392.515 139.244 387.781 141.009 384.188 144.54C380.679 148.07 378.474 152.463 377.575 157.718Z" fill="#364153"/>
<path d="M339.626 193.437V139.987H329.094V131.859H339.626V126.44C339.626 119.707 341.626 114.658 345.627 111.292C349.709 107.926 355.262 106.242 362.282 106.242H363.017V114.987H361.792C357.546 114.987 354.321 115.972 352.117 117.942C349.913 119.831 348.811 122.91 348.811 127.179V131.859H363.017V139.987H348.811V193.437H339.626Z" fill="#364153"/>
<path d="M309.977 121.514V109.444H319.898V121.514H309.977ZM310.344 193.437V131.859H319.529V193.437H310.344Z" fill="#364153"/>
<path d="M285.23 193.438V107.229H294.415V193.438H285.23Z" fill="#364153"/>
<path d="M192.01 127.321V106H148.483C148.483 130.126 129.016 149.682 105 149.682V193.365C126.79 193.365 146.705 185.305 161.963 172.004V193.365H205.447C205.447 169.239 224.914 149.682 248.93 149.682V106C227.158 106 207.264 114.042 192.01 127.321Z" fill="#364153"/>
</g>
</svg>
